src/lib/packages/icons/src/assets/filled/home-roof-wifi.svg

<svg width="24" height="24" viewBox="0 0 24 24" fill="none" xmlns="http://www.w3.org/2000/svg">
<path d="M21.477 9.08502L14.0649 2.98907C12.8679 2.00707 11.133 2.00607 9.93598 2.98907L2.52399 9.08404C2.20499 9.34704 2.15796 9.81907 2.42096 10.1401C2.68396 10.4611 3.15699 10.5051 3.47699 10.2431L4.49994 9.40106V18.0001C4.49994 20.2901 5.70994 21.5001 7.99994 21.5001H15.9999C18.2899 21.5001 19.4999 20.2901 19.4999 18.0001V9.40204L20.5229 10.2441C20.6629 10.3591 20.8319 10.4151 20.9999 10.4151C21.2159 10.4151 21.4309 10.322 21.5789 10.142C21.8429 9.82003 21.796 9.34802 21.477 9.08502ZM11.9999 17.5001C11.4479 17.5001 10.9999 17.0521 10.9999 16.5001C10.9999 15.9481 11.4479 15.5001 11.9999 15.5001C12.5519 15.5001 12.9999 15.9481 12.9999 16.5001C12.9999 17.0521 12.5519 17.5001 11.9999 17.5001ZM14.848 14.7142C14.7 14.9082 14.476 15.0101 14.249 15.0101C14.091 15.0101 13.932 14.96 13.796 14.857C12.767 14.075 11.2339 14.075 10.2039 14.857C9.87292 15.109 9.40392 15.0429 9.15192 14.7129C8.90192 14.3829 8.96596 13.9132 9.29596 13.6622C10.853 12.4792 13.1479 12.4792 14.7039 13.6622C15.0329 13.9142 15.098 14.3852 14.848 14.7142ZM17.0679 12.6561C16.9199 12.8281 16.7109 12.9171 16.4999 12.9171C16.3259 12.9171 16.1519 12.8572 16.0109 12.7352C14.8989 11.7772 13.4739 11.2501 11.9999 11.2501C10.5259 11.2501 9.10196 11.7772 7.98896 12.7352C7.67596 13.0052 7.20197 12.9701 6.93097 12.6561C6.65997 12.3421 6.69695 11.8681 7.00995 11.5981C8.39495 10.4061 10.166 9.75006 11.999 9.75006C13.832 9.75006 15.603 10.4061 16.988 11.5981C17.303 11.8681 17.3389 12.3421 17.0679 12.6561Z" fill="currentColor"/>
</svg>

<svg xmlns="http://www.w3.org/2000/svg" width="24" height="24" fill="none"><path fill="currentColor" d="m21.477 9.085-7.412-6.096a3.26 3.26 0 0 0-4.129 0L2.524 9.084a.751.751 0 0 0 .953 1.16L4.5 9.4V18c0 2.29 1.21 3.5 3.5 3.5h8c2.29 0 3.5-1.21 3.5-3.5V9.401l1.023.842a.749.749 0 0 0 1.056-.102.751.751 0 0 0-.102-1.057ZM12 17.5a1 1 0 1 1 0-2 1 1 0 0 1 0 2Zm2.848-2.786a.751.751 0 0 1-1.052.143c-1.029-.782-2.562-.782-3.592 0a.75.75 0 1 1-.908-1.195c1.557-1.183 3.852-1.183 5.408 0a.753.753 0 0 1 .144 1.052Zm2.22-2.058a.747.747 0 0 1-1.057.08A6.146 6.146 0 0 0 12 11.25a6.148 6.148 0 0 0-4.011 1.485.75.75 0 0 1-.979-1.137 7.648 7.648 0 0 1 4.989-1.848c1.833 0 3.604.656 4.989 1.848a.75.75 0 0 1 .08 1.058Z"/></svg>
